NotoEmoji/emoji_u2712.svg

<svg enable-background="new 0 0 128 128" viewBox="0 0 128 128" xmlns="http://www.w3.org/2000/svg"><path d="m123.39 118.93c-.42-1.99-1.95-2.36-2.84-4.34 0 0-6.58-14.61-9.61-23.71-2.09-6.28-3.69-12.6-4.44-16.42-1.67-8.57-5.17-11.04-9.27-13.53-9.23-5.61-27.62-17.7-38.55-26.91-13.76-11.61-21.45-19.02-21.45-19.02l-11.46 11.46-11.27 11.27s7.42 7.69 19.02 21.44c9.22 10.93 21.3 29.32 26.91 38.55 2.49 4.1 4.97 7.61 13.53 9.27 3.82.75 10.14 2.35 16.42 4.44 9.1 3.03 23.71 9.61 23.71 9.61 1.98.89 2.35 2.42 4.34 2.84 3.02.64 3.27-1.68 3.27-1.68l-.61-.61.61.6c0 .01 2.33-.24 1.69-3.26z" fill="#84b0c1"/><path d="m117.92 119.15c2.76 2.18 3.79 3.06 3.79 3.06s-.7-2.15-4.62-6.98-28.88-28.88-28.88-28.88l-1.93 1.93c.01 0 27.31 27.44 31.64 30.87z"/><circle cx="85.27" cy="84.86" r="4.56"/><path d="m75.44 51.36c3.77 1.75 8.71 5.69 17.3 11.4 8.8 5.84 8.1 10.26 9.69 15.9 1.38 4.92 4.09 12.22 6.05 17.31.37.96-1.52 1.09-2.53-.62-11.35-19.24-31.73-35.43-32.56-39.34-1.03-4.88 2-4.68 2.05-4.65z" fill="#a8e3f0"/><path d="m56.66 54.56s-13.61 11.09-12.38 13.04c5.32 8.43 18.12 28.7 22.68 32.32 2.59 2.05 7.76 3.58 16.8 5.86 3.73.94 6.8 1.55 9.61 2.79 1.1.49 1.94-1.06.94-1.72-9.02-5.97-24.66-15.26-37-32.99-7.2-10.34-.65-19.3-.65-19.3z" fill="#2f7889"/><path d="m19.63 21c5.58-5.59 12.86-10.96 17.37-14.1 2.38-1.66 5.61-1.31 7.59.81 16.53 17.66 24.84 27.18 28.25 31.57 1.28 1.64 1.13 3.97-.34 5.44l-29.36 28.3c-1.47 1.47-3.8 1.62-5.44.34-4.37-3.39-13.82-11.38-31.31-27.48-2.15-1.98-2.52-5.25-.83-7.65 3.15-4.48 8.51-11.67 14.07-17.23z" fill="#424242"/><path d="m34.26 70.6c3.87-5.49 9.73-13.1 17.16-20.67 6.69-6.81 13.35-11.3 18.59-14.14 0 0 2.74.57 3.7 2.5 1.3 2.61.26 4.95-1.21 6.43l-29.36 28.3c-1.47 1.47-4.6 2.81-6.8 1.21-2.32-1.69-2.08-3.63-2.08-3.63z" fill="#ffc107"/><path d="m61.11 42.71c-2.6 2.53-5.11 5.95-2.21 8.58 1.87 1.7 5.29-.5 6.58-1.75 2.61-2.5 8.75-6.35 5.14-9.82-3.42-3.29-7.41.95-9.51 2.99z" fill="#ffee58"/><path d="m52.13 38.89c-6.55-5.75-10.53-9.56-15.08-14.11-6.79-6.79 2.93-13.83 7.49-9.27 5.03 5.03 12.42 13.73 15.37 19.5 1.47 2.88-3.87 7.31-7.78 3.88z" fill="#757575"/></svg>

<?xml version="1.0" encoding="utf-8"?>
<!-- Generator: Adobe Illustrator 25.2.3, SVG Export Plug-In . SVG Version: 6.00 Build 0)  -->
<svg version="1.1" id="Layer_2" xmlns="http://www.w3.org/2000/svg" xmlns:xlink="http://www.w3.org/1999/xlink" x="0px" y="0px"
	 viewBox="0 0 128 128" style="enable-background:new 0 0 128 128;" xml:space="preserve">
<g>
	<g>
		<path style="fill:#84B0C1;" d="M123.39,118.93c-0.42-1.99-1.95-2.36-2.84-4.34c0,0-6.58-14.61-9.61-23.71
			c-2.09-6.28-3.69-12.6-4.44-16.42c-1.67-8.57-5.17-11.04-9.27-13.53c-9.23-5.61-27.62-17.7-38.55-26.91
			C44.92,22.41,37.23,15,37.23,15L25.77,26.46l0,0L14.5,37.73c0,0,7.42,7.69,19.02,21.44c9.22,10.93,21.3,29.32,26.91,38.55
			c2.49,4.1,4.97,7.61,13.53,9.27c3.82,0.75,10.14,2.35,16.42,4.44c9.1,3.03,23.71,9.61,23.71,9.61c1.98,0.89,2.35,2.42,4.34,2.84
			c3.02,0.64,3.27-1.68,3.27-1.68l-0.61-0.61l0.61,0.6C121.7,122.2,124.03,121.95,123.39,118.93z"/>
		<g>
			<path d="M117.92,119.15c2.76,2.18,3.79,3.06,3.79,3.06s-0.7-2.15-4.62-6.98S88.21,86.35,88.21,86.35l-1.93,1.93
				C86.29,88.28,113.59,115.72,117.92,119.15z"/>
		</g>
		<circle cx="85.27" cy="84.86" r="4.56"/>
		<path style="fill:#A8E3F0;" d="M75.44,51.36c3.77,1.75,8.71,5.69,17.3,11.4c8.8,5.84,8.1,10.26,9.69,15.9
			c1.38,4.92,4.09,12.22,6.05,17.31c0.37,0.96-1.52,1.09-2.53-0.62C94.6,76.11,74.22,59.92,73.39,56.01
			C72.36,51.13,75.39,51.33,75.44,51.36z"/>
		<path style="fill:#2F7889;" d="M56.66,54.56c0,0-13.61,11.09-12.38,13.04C49.6,76.03,62.4,96.3,66.96,99.92
			c2.59,2.05,7.76,3.58,16.8,5.86c3.73,0.94,6.8,1.55,9.61,2.79c1.1,0.49,1.94-1.06,0.94-1.72c-9.02-5.97-24.66-15.26-37-32.99
			C50.11,63.52,56.66,54.56,56.66,54.56z"/>
	</g>
	<g>
		<path style="fill:#424242;" d="M19.63,21C25.21,15.41,32.49,10.04,37,6.9c2.38-1.66,5.61-1.31,7.59,0.81
			c16.53,17.66,24.84,27.18,28.25,31.57c1.28,1.64,1.13,3.97-0.34,5.44l-29.36,28.3c-1.47,1.47-3.8,1.62-5.44,0.34
			c-4.37-3.39-13.82-11.38-31.31-27.48c-2.15-1.98-2.52-5.25-0.83-7.65C8.71,33.75,14.07,26.56,19.63,21z"/>
		<path style="fill:#FFC107;" d="M34.26,70.6c3.87-5.49,9.73-13.1,17.16-20.67c6.69-6.81,13.35-11.3,18.59-14.14
			c0,0,2.74,0.57,3.7,2.5c1.3,2.61,0.26,4.95-1.21,6.43l-29.36,28.3c-1.47,1.47-4.6,2.81-6.8,1.21
			C34.02,72.54,34.26,70.6,34.26,70.6z"/>
		<path style="fill:#FFEE58;" d="M61.11,42.71c-2.6,2.53-5.11,5.95-2.21,8.58c1.87,1.7,5.29-0.5,6.58-1.75
			c2.61-2.5,8.75-6.35,5.14-9.82C67.2,36.43,63.21,40.67,61.11,42.71z"/>
		<g>
			<path style="fill:#757575;" d="M52.13,38.89c-6.55-5.75-10.53-9.56-15.08-14.11c-6.79-6.79,2.93-13.83,7.49-9.27
				c5.03,5.03,12.42,13.73,15.37,19.5C61.38,37.89,56.04,42.32,52.13,38.89z"/>
		</g>
	</g>
</g>
</svg>
